X:5
T:Shoe the Donkey
M:3/4
L:1/8
R:mazurka
K:G
|: DG | B2 B2 DG | B2 B2 DG | B2 c2 B2 | A4 DF |
A2 A2 DF | A2 A2 DF | A2 B2 A2 |1 G4 :|2 G3 ||
ABc | d2 g2 f2 | A3 GAB | c2 e2 d2 | B3 ABc |
B2 A2 B2 | c3 Bcd | e2 d2 c2 | B3 ABc |
d2 g2 f2 | A3 GAB | c2 e2 d2 | B3 ABc |
B2 A2 B2 | c3 Bcd | e2 d2 F2 | G4 ||
